packages/ffe-icons/icons/open/300/lg/ripples.svg

<svg xmlns="http://www.w3.org/2000/svg" height="40" viewBox="0 -960 960 960" width="40"><path d="M202.565-190.256h554.87q4.616 0 8.462-3.847 3.847-3.846 3.847-8.462v-355.436q-19.423 12.462-41.499 18.744-22.075 6.282-45.271 6.282-62.447 0-106.761-44.164-44.315-44.164-44.315-106.656 0-22.878 6.282-44.644t18.744-41.305H202.565q-4.616 0-8.462 3.847-3.847 3.846-3.847 8.462v554.87q0 4.616 3.847 8.462 3.846 3.847 8.462 3.847Zm0 50.255q-25.788 0-44.176-18.388t-18.388-44.176v-554.87q0-25.788 18.388-44.176t44.176-18.388h554.87q25.788 0 44.176 18.388t18.388 44.176v554.87q0 25.788-18.388 44.176t-44.176 18.388h-554.87Zm-12.309-629.743V-190.256-769.744Z"/></svg>

<svg xmlns="http://www.w3.org/2000/svg" viewBox="0 -960 960 960" width="32" height="32"><path d="M202.57-190.26h554.86q4.62 0 8.47-3.84 3.84-3.85 3.84-8.47V-558q-19.42 12.46-41.49 18.74-22.08 6.28-45.28 6.28-62.44 0-106.76-44.16-44.31-44.16-44.31-106.65 0-22.88 6.28-44.65t18.74-41.3H202.57q-4.62 0-8.47 3.84-3.84 3.85-3.84 8.47v554.86q0 4.62 3.84 8.47 3.85 3.84 8.47 3.84Zm0 50.26q-25.79 0-44.18-18.39T140-202.57v-554.86q0-25.79 18.39-44.18T202.57-820h554.86q25.79 0 44.18 18.39T820-757.43v554.86q0 25.79-18.39 44.18T757.43-140H202.57Zm-12.31-629.74v579.48-579.48Z"/></svg>
